X: 27082
T: Miss Kate Minogue
R: slip jig
M: 9/8
K: Bminor
"Bmin"B2 f fge ~f2 e|B2 f fed "A"~c3|
"Bmin"B2f fge ~f2e|"G"dBd "D"def "A"e2d:|
|:"D"a2d dcd "A"efg|"D"a2d dcd "G"~B2A|
"D"a2d dcd "G"Bcd|"A"cde edc ~B2A:|
|:"Bmin"dcB BcA ~B2A|"G"dcB "Emin/G"Bcd "A"~e3|
"Bmin"dcB BcA Bcd|"A"eae "Bmin"dcB "A/C#"ABc:|

